gfx/Icon-cuttingedge.svg

<svg height="64" viewBox="0 0 64 64" width="64" xmlns="http://www.w3.org/2000/svg"><path d="m56.8797171 35.1359942c-1.3301723 14.5043936-13.5283549 25.8640058-28.3797171 25.8640058-14.6940821 0-26.7908828-11.1202832-28.33380944-25.4042567l3.95019225.3826313 1.06275323.1101996c1.88439552.4402974 3.5253824 1.013667 4.92211696 1.7162581 4.873265 2.4513695 8.4028468 3.2962635 11.7400224 2.8410332l.1752032.0955953c6.6251401 3.7416674 10.7795748 3.2534253 16.9862037-.3414447l1.4995449-.8830674.8496787-.4881745c.9533007-.5360943 1.6276552-.8665327 2.3908755-1.1718208 2.7997058-1.1198823 5.8546794-1.9971986 9.1660112-2.6302758zm-14.0488183.4619434 1.3961274-.0681717-.4448153.1656693-.61157.2367144-.1706409.0678504c-.2202151.088086-.4377319.1807695-.652909.2773569l-.4436737.2059938-.2349699.1143969-.4151643.2103822-.4107381.2175299c-.3524954.1903379-.7006455.3872598-1.0462449.5872938l-1.1279867.6634583c-.4337381.2569318-.8668436.5129431-1.3026677.7607618l-.3688669.2072245-.2538992.139332c-.1434579.0778777-.2871577.1544005-.4314585.2294487l-.305617.156182-.4899303.2378802-.3561315.1622732-.5141057.2169405-.2564869.1001056c-.268299.1017954-.5403746.1957168-.8168115.2803617l-.4832532.1370573-.4483738.1073395-.4676295.0913005-.2950513.0466822-.4419031.0540859-.3284267.0279336-.4308897.0208964-.245741.0039792-.2069069-.0010788-.3172493-.0094454-.5528635-.0386619-.3740008-.0418432-.3105574-.0441627c-.2068814-.0322354-.416381-.070445-.6289643-.1149755l-.2931323-.064978-.3271818-.0808567-.4382597-.1217602-.4080969-.1268669-.5423913-.1881029-.4966076-.191065-.3617707-.1501447-.3923844-.1729744.2928638-.1087221.2923621-.1140699.2934625-.1201591.3070167-.1315825c.1498412-.0656447.3002381-.1336037.4512953-.2038486l.4562568-.218544 2.2815988-1.1598614c.6910732-.3497108 1.2657524-.6240217 1.8312133-.8683303l.2824585-.1198642.0832521-.0330083.1578516-.055293.1675403-.0512661.4045376-.1037968.3449817-.074061.333563-.0631781.6392856-.1049564.4811824-.0688787.8602388-.1078636 1.3440124-.1411553.7722143-.0702527 2.0550564-.1599033 2.1122323-.1347433zm-17.3700252-7.0549634.4986434.2374112.4575496.2270257 2.0038192 1.0267161.6544478.3228825.6530684.3063841.221812.0997676.2247868.0986805c.1066466.0462269.2152586.0924328.3249992.1381581l.18453.0710679.2533069.0833209.2306829.0660239.2459276.0629257.2572325.0595116.4184844.0863585.5388112.0970239.6279044.0984626.5646194.078492.659357.0823552.4055963.0465682 1.0663183.1104761 1.3821233.1230473.6104724.0486293 1.4152072.1019406 1.370308.0868182 1.7786327.0987525c.7360573.038038 1.5039841.0744675 2.3041234.1093063l1.4478718.0599242 1.9644189.0723242 3.5388628.1087905 2.8712597.0717479 2.7248577.0568894 2.9285087.0508224c1.6681661.0261992 3.4050269.0490061 5.2105825.0684207l-4.2014395.0555559c-1.0173864.0154952-2.0100427.0321949-2.9779689.0500993l-3.2064201.0657604-2.4069221.0578314-4.2485048.1292029-3.1671706.1214758-2.1685744.0999584-1.6158946.0857191-1.6170749.0977068-1.4016166.0965671-1.2001283.0938587-1.4209478.1281968-.5607113.05704-1.160526.1332075-.2942951.0377953-.5904453.0820599-.4835414.0747187-.4970213.0858735-.3853046.0747934-.5347436.1204413-.3081581.082013-.3680607.1171928-.0953867.0353861-.0891433.0356902-.5392584.2321064-.4300953.195172-.3269752.1537738-.3216571.1553181-.3882821.1920643-1.8324112.9372914-.7048898.3514518-.3809987.1820909-.2772233.1278474-.3711132.1639281-.4286077.1775615-.361033.1386121c-.2112402.077983-.4245737.1511307-.6408083.2187223l-.3525653.1044125-.3410473.0897657-.2554138.0598537-.3432328.0703943.0004132-.0019352-.0689489.0146086c-2.6948048.4892677-5.9976523.0215983-11.1358518-2.5630397-1.44382032-.7262763-3.10478826-1.3214761-4.98290381-1.7855993l-.80956342-.1889841-.45009365-.0959493-.45966469-.0916302-.56738844-.1048656-.60267391-.1019356-.40856238-.0637515-.77303673-.109721-.24131923-.0314202c-.55067228-.0702153-1.11513221-.1321079-1.69337977-.1856779l-.60907826-.0529341-.74065507-.0552915-.57686773-.0365014-.69890232-.0369052-.2740699-.0123662c-.46476269-.0199874-.93720806-.0353375-1.41733583-.0460502-.55431091-.012371-1.11928057-.018561-1.69450486-.018561.42236025 0 .83919194-.0033171 1.25049507-.0099514l.61280827-.0124393c.36829479-.0090322.73203516-.0207971 1.0912211-.0352946l.47520327-.0208669.47001897-.0241354.59205607-.0354977.58329475-.0407545.96189231-.0804571.50577549-.0492969 1.10114897-.1252475.54000519-.0709579.51389512-.0737689.66010766-.1041748.78124905-.1378943.75886117-.1503025.40861145-.0880951.4749068-.1090955.5725656-.141688.43962358-.116803.44057257-.1244872.36602351-.1094044c1.24426793-.3816444 2.37649112-.8278006 3.39966403-1.3393871 4.0308321-2.0154161 6.9283491-2.7427392 9.2845208-2.7327566l.317121.0059689c1.158013.0380293 2.1865367.2553629 3.1603118.582473l.4106671.1453951c.4362011.1621658.8632799.3449728 1.2882529.5418938zm3.0391264-24.5429742c15.1934425 0 27.6100733 11.8889445 28.4542347 26.871176l-2.0217127-.0428128c-.6606986-.0149326-1.3081979-.0305191-1.9425168-.0467365-3.2872171-.6574846-6.317666-1.6815251-9.095578-3.0704811-.2864198-.1432099-.5860293-.3064798-.9069352-.4934544-.3230578-.1882285-.6624238-.3971042-1.0573003-.6494984l-1.6361598-1.0690831c-6.4954814-4.2512334-11.1002257-5.1565299-17.9138793-1.4420332l-.3606751.1997724c-.6245965.3513356-1.2558815.6845038-1.8953091 1.0006122-2.8452023-.0001959-5.9650975.9269355-10.0185956 2.9536845-.90919434.4545972-1.92184316.8547853-3.03762394 1.1997037-2.19072806.4086026-4.51121128.7392407-6.99204166 1.0151663 1.06073398-14.7718679 13.3814274-26.4260156 28.4240928-26.4260156zm1.736779 19.8185882.2863468.0012788.3612429.0121302.5364893.0398729.2237323.024402.3140859.0420176.4090967.0683559.5747593.1221033.3144301.0796496.3800452.1083188c.1988996.0601118.3958537.125028.5905387.1941531.1321554.0469204.2635031.0958733.3938489.1466306.2078052.080925.4128214.1663284.6154887.2557332l.420905.1928138.7272629.3652146.5121441.279515.0995157.056269c.2943804.1673473.5845132.3401623.8711079.5163221l.7269557.4573171.4814272.3117557 1.0832653.7112365c.1788865.1171965.3570814.2333234.5347901.3477836l.6263548.3966001.4677026.2844481.422826.2457256-.1368107-.0781763c.308093.1775424.6162942.3452532.9256696.4999409l.6915303.3363309.6800026.3128114.689782.2998675.1870451.0783736-1.7955546-.0809162c-1.7372432-.0833903-3.2992481-.174154-4.6832752-.2718481l-1.5103217-.1151558-1.017679-.0893683-.7287894-.0710732-.450205-.047948-.683876-.0793859-.5497509-.0714092-.5231849-.075894-.4011992-.0651852-.5748364-.1081132-.3888918-.0878028-.2886897-.077407-.1922184-.0605487-.1140941-.0410141-.0765629-.0304675c-.5643599-.23515-1.1199383-.4928071-1.7729005-.8182015l-2.6862096-1.3652766-.0976773-.0476457-.4466027-.20984-.5869516-.257573-.3588508-.1466726-.4970191-.1888625c-.1413987-.0513023-.2825362-.1004056-.4235027-.1472862l-.4678574-.1475509-.4014309-.1135354.1796429-.0945389c.162116-.0837589.3228665-.1642174.4822771-.2414513.4165471-.2018197.8240777-.3816751 1.2229056-.540854l.2981222-.1157623.4759158-.1712772.3996597-.1307191.4914349-.1439456.1609661-.0430518.2576115-.0646317.482794-.1067762.3093044-.0584108.4103776-.065233.2939938-.0380092.3634564-.0367805.2981734-.021637.2843119-.0133887z" fill="#1f1c32" class="path-name"/></svg>

<?xml version="1.0" encoding="UTF-8"?>
<svg width="64px" height="64px" viewBox="0 0 64 64" version="1.1" xmlns="http://www.w3.org/2000/svg" xmlns:xlink="http://www.w3.org/1999/xlink">
    <!-- Generator: Sketch 62 (91390) - https://sketch.com -->
    <title>Icon-cuttingedge</title>
    <desc>Created with Sketch.</desc>
    <g id="3.7" stroke="none" stroke-width="1" fill="none" fill-rule="evenodd">
        <g id="Icon/cutting-edge" fill="#1F1C32" fill-rule="nonzero">
            <path d="M56.8797171,35.1359942 C55.5495448,49.6403878 43.3513622,61 28.5,61 C13.8059179,61 1.7091172,49.8797168 0.166190556,35.5957433 L4.11638281,35.9783746 L5.17913604,36.0885742 L5.17913604,36.0885742 C7.06353156,36.5288716 8.70451844,37.1022412 10.101253,37.8048323 C14.974518,40.2562018 18.5040998,41.1010958 21.8412754,40.6458655 L22.0164786,40.7414608 C28.6416187,44.4831282 32.7960534,43.9948861 39.0026823,40.4000161 L40.5022272,39.5169487 L41.3519059,39.0287742 C42.3052066,38.4926799 42.9795611,38.1622415 43.7427814,37.8569534 C46.5424872,36.7370711 49.5974608,35.8597548 52.9087926,35.2266776 L56.8797171,35.1359942 Z M42.8308988,35.5979376 L44.2270262,35.5297659 L43.7822109,35.6954352 L43.7822109,35.6954352 L43.1706409,35.9321496 L43.1706409,35.9321496 L43,36 C42.7797849,36.088086 42.5622681,36.1807695 42.347091,36.2773569 L41.9034173,36.4833507 L41.6684474,36.5977476 L41.6684474,36.5977476 L41.2532831,36.8081298 L41.2532831,36.8081298 L40.842545,37.0256597 C40.4900496,37.2159976 40.1418995,37.4129195 39.7963001,37.6129535 L38.6683134,38.2764118 C38.2345753,38.5333436 37.8014698,38.7893549 37.3656457,39.0371736 L36.9967788,39.2443981 L36.9967788,39.2443981 L36.7428796,39.3837301 C36.5994217,39.4616078 36.4557219,39.5381306 36.3114211,39.6131788 L36.0058041,39.7693608 L36.0058041,39.7693608 L35.5158738,40.007241 L35.5158738,40.007241 L35.1597423,40.1695142 L35.1597423,40.1695142 L34.6456366,40.3864547 L34.6456366,40.3864547 L34.3891497,40.4865603 L34.3891497,40.4865603 C34.1208507,40.5883557 33.8487751,40.6822771 33.5723382,40.766922 L33.089085,40.9039793 L33.089085,40.9039793 L32.6407112,41.0113188 L32.6407112,41.0113188 L32.1730817,41.1026193 L32.1730817,41.1026193 L31.8780304,41.1493015 L31.8780304,41.1493015 L31.4361273,41.2033874 L31.4361273,41.2033874 L31.1077006,41.231321 L31.1077006,41.231321 L30.6768109,41.2522174 L30.6768109,41.2522174 L30.4310699,41.2561966 L30.4310699,41.2561966 L30.224163,41.2551178 L30.224163,41.2551178 L29.9069137,41.2456724 L29.9069137,41.2456724 L29.3540502,41.2070105 L29.3540502,41.2070105 L28.9800494,41.1651673 L28.9800494,41.1651673 L28.669492,41.1210046 L28.669492,41.1210046 C28.4626106,41.0887692 28.253111,41.0505596 28.0405277,41.0060291 L27.7473954,40.9410511 L27.7473954,40.9410511 L27.4202136,40.8601944 L27.4202136,40.8601944 L26.9819539,40.7384342 L26.9819539,40.7384342 L26.573857,40.6115673 L26.573857,40.6115673 L26.0314657,40.4234644 L26.0314657,40.4234644 L25.5348581,40.2323994 L25.5348581,40.2323994 L25.1730874,40.0822547 L25.1730874,40.0822547 L24.780703,39.9092803 L24.780703,39.9092803 L25.0735668,39.8005582 L25.3659289,39.6864883 L25.3659289,39.6864883 L25.6593914,39.5663292 L25.9664081,39.4347467 C26.1162493,39.369102 26.2666462,39.301143 26.4177034,39.2308981 L26.8739602,39.0123541 L29.155559,37.8524927 C29.8466322,37.5027819 30.4213114,37.228471 30.9867723,36.9841624 L31.2692308,36.8642982 L31.3524829,36.8312899 L31.3524829,36.8312899 L31.5103345,36.7759969 L31.5103345,36.7759969 L31.6778748,36.7247308 L31.6778748,36.7247308 L32.0824124,36.620934 L32.0824124,36.620934 L32.4273941,36.546873 L32.4273941,36.546873 L32.7609571,36.4836949 L32.7609571,36.4836949 L33.4002427,36.3787385 L33.4002427,36.3787385 L33.8814251,36.3098598 L33.8814251,36.3098598 L34.7416639,36.2019962 L34.7416639,36.2019962 L36.0856763,36.0608409 L36.0856763,36.0608409 L36.8578906,35.9905882 L36.8578906,35.9905882 L38.912947,35.8306849 L38.912947,35.8306849 L41.0251793,35.6959416 L41.0251793,35.6959416 L42.8308988,35.5979376 L42.8308988,35.5979376 Z M25.4608736,28.5429742 L25.959517,28.7803854 L26.4170666,29.0074111 L28.4208858,30.0341272 L29.0753336,30.3570097 L29.728402,30.6633938 L29.950214,30.7631614 L30.1750008,30.8618419 C30.2816474,30.9080688 30.3902594,30.9542747 30.5,31 L30.68453,31.0710679 L30.9378369,31.1543888 L31.1685198,31.2204127 L31.4144474,31.2833384 L31.6716799,31.34285 L32.0901643,31.4292085 L32.6289755,31.5262324 L33.2568799,31.624695 L33.8214993,31.703187 L34.4808563,31.7855422 L34.8864526,31.8321104 L35.9527709,31.9425865 L37.3348942,32.0656338 L37.9453666,32.1142631 L39.3605738,32.2162037 L40.7308818,32.3030219 L42.5095145,32.4017744 C43.2455718,32.4398124 44.0134986,32.4762419 44.8136379,32.5110807 L46.2615097,32.5710049 L48.2259286,32.6433291 L51.7647914,32.7521196 L54.6360511,32.8238675 L56.9577352,32.8999801 L56.950835,33.1206956 L55.1141715,33.1714156 L52.7072494,33.229247 L48.4587446,33.3584499 L45.291574,33.4799257 L43.1229996,33.5798841 L41.507105,33.6656032 L39.8900301,33.76331 L38.4884135,33.8598771 L37.2882852,33.9537358 L35.8673374,34.0819326 L35.3066261,34.1389726 L34.1461001,34.2721801 L33.851805,34.3099754 L33.2613597,34.3920353 L32.7778183,34.466754 L32.280797,34.5526275 L31.8954924,34.6274209 L31.3607488,34.7478622 L31.0525907,34.8298752 L30.68453,34.947068 L30.5891433,34.9824541 L30.5,35.0181443 L29.9607416,35.2502507 L29.5306463,35.4454227 L29.2036711,35.5991965 L28.882014,35.7545146 L28.4937319,35.9465789 L26.6613207,36.8838703 L25.9564309,37.2353221 L25.5754322,37.417413 L25.2982089,37.5452604 L24.9270957,37.7091885 L24.498488,37.88675 L24.137455,38.0253621 C23.9262148,38.1033451 23.7128813,38.1764928 23.4966467,38.2440844 L23.1440814,38.3484969 L22.8030341,38.4382626 L22.5476203,38.4981163 L22.2043875,38.5685106 L22.1358518,38.581184 C19.441047,39.0704517 16.1381995,38.6027823 11,36.0181443 C9.55617968,35.291868 7.89521174,34.6966682 6.01709619,34.232545 L5.20753277,34.0435609 L4.75743912,33.9476116 L4.29777443,33.8559814 L3.73038599,33.7511158 L3.12771208,33.6491802 L2.7191497,33.5854287 L1.94611297,33.4757077 L1.70479374,33.4442875 C1.15412146,33.3740722 0.589661534,33.3121796 0.0114139699,33.2586096 L0.0369898141,32.7406031 L0.542765296,32.6913062 L1.64391427,32.5660587 L2.18391946,32.4951008 L2.69781458,32.4213319 L3.35792224,32.3171571 L4.13917129,32.1792628 L4.89803246,32.0289603 L5.30664391,31.9408652 L5.78155071,31.8317697 L6.35411631,31.6900817 L6.79373989,31.5732787 L7.23431246,31.4487915 L7.60033597,31.3393871 C8.8446039,30.9577427 9.97682709,30.5115865 11,30 C15.0308321,27.9845839 17.9283491,27.2572608 20.2845208,27.2673467 L20.6016418,27.2732123 C21.7596548,27.3112416 22.7881785,27.5285752 23.7619536,27.8556853 L24.1726207,28.0010804 C24.6088218,28.1632462 25.0359006,28.3460532 25.4608736,28.5429742 Z M28.5,4 C43.6934425,4 56.1100733,15.8889445 56.9542347,30.871176 L54.932522,30.8283632 C54.2718234,30.8134306 53.6243241,30.7978441 52.9900052,30.7816267 C49.7027881,30.1241421 46.6723392,29.1001016 43.8944272,27.7111456 C43.6080074,27.5679357 43.3083979,27.4046658 42.987492,27.2176912 C42.6644342,27.0294627 42.3250682,26.820587 41.9301917,26.5681928 L40.2940319,25.4991097 C33.7985505,21.2478763 29.1938062,20.3425798 22.3801526,24.0570765 L22.0194775,24.2568489 C21.394881,24.6081845 20.763596,24.9413527 20.1241684,25.2574611 C17.2789661,25.2572652 14.1590709,26.1843966 10.1055728,28.2111456 C9.19637846,28.6657428 8.18372964,29.0659309 7.06794886,29.4108493 C4.8772208,29.8194519 2.55673758,30.15009 0.075907201,30.4260156 C1.13664118,15.6541477 13.4573346,4 28.5,4 Z M30.236779,23.8185882 L30.5231258,23.819867 L30.5231258,23.819867 L30.8843687,23.8319972 L30.8843687,23.8319972 L31.420858,23.8718701 L31.420858,23.8718701 L31.6445903,23.8962721 L31.6445903,23.8962721 L31.9586762,23.9382897 L31.9586762,23.9382897 L32.3677729,24.0066456 L32.3677729,24.0066456 L32.9425322,24.1287489 L32.9425322,24.1287489 L33.2569623,24.2083985 L33.2569623,24.2083985 L33.6370075,24.3167173 L33.6370075,24.3167173 C33.8359071,24.3768291 34.0328612,24.4417453 34.2275462,24.5108704 C34.3597016,24.5577908 34.4910493,24.6067437 34.6213951,24.657501 C34.8292003,24.738426 35.0342165,24.8238294 35.2368838,24.9132342 L35.6577888,25.106048 L35.6577888,25.106048 L36.3850517,25.4712626 L36.3850517,25.4712626 L36.8971958,25.7507776 L36.8971958,25.7507776 L36.9967115,25.8070466 C37.2910919,25.9743939 37.5812247,26.1472089 37.8678194,26.3233687 L38.5947751,26.7806858 L38.5947751,26.7806858 L39.0762023,27.0924415 L39.0762023,27.0924415 L40.1594676,27.803678 C40.3383541,27.9208745 40.516549,28.0370014 40.6942577,28.1514616 L41.3206125,28.5480617 L41.7883151,28.8325098 L42.2111411,29.0782354 L42.2111411,29.0782354 L42.0743304,29.0000591 C42.3824234,29.1776015 42.6906246,29.3453123 43,29.5 L43.6915303,29.8363309 L44.3715329,30.1491423 L45.0613149,30.4490098 L45.0613149,30.4490098 L45.24836,30.5273834 L43.4528054,30.4464672 C41.7155622,30.3630769 40.1535573,30.2723132 38.7695302,30.1746191 L37.2592085,30.0594633 L37.2592085,30.0594633 L36.2415295,29.970095 L36.2415295,29.970095 L35.5127401,29.8990218 L35.5127401,29.8990218 L35.0625351,29.8510738 L35.0625351,29.8510738 L34.3786591,29.7716879 L34.3786591,29.7716879 L33.8289082,29.7002787 L33.8289082,29.7002787 L33.3057233,29.6243847 L33.3057233,29.6243847 L32.9045241,29.5591995 L32.9045241,29.5591995 L32.3296877,29.4510863 L32.3296877,29.4510863 L31.9407959,29.3632835 L31.9407959,29.3632835 L31.6521062,29.2858765 L31.6521062,29.2858765 L31.4598878,29.2253278 L31.4598878,29.2253278 L31.3457937,29.1843137 L31.3457937,29.1843137 L31.2692308,29.1538462 C30.7048709,28.9186962 30.1492925,28.6610391 29.4963303,28.3356447 L26.8101207,26.9703681 L26.7124434,26.9227224 L26.2658407,26.7128824 L26.2658407,26.7128824 L25.6788891,26.4553094 L25.3200383,26.3086368 L24.8230192,26.1197743 C24.6816205,26.068472 24.540483,26.0193687 24.3995165,25.9724881 L23.9316591,25.8249372 L23.5302282,25.7114018 L23.5302282,25.7114018 L23.7098711,25.6168629 C23.8719871,25.533104 24.0327376,25.4526455 24.1921482,25.3754116 C24.6086953,25.1735919 25.0162259,24.9937365 25.4150538,24.8345576 L25.713176,24.7187953 L25.713176,24.7187953 L26.1890918,24.5475181 L26.1890918,24.5475181 L26.5887515,24.416799 L26.5887515,24.416799 L27.0801864,24.2728534 L27.0801864,24.2728534 L27.2411525,24.2298016 L27.2411525,24.2298016 L27.498764,24.1651699 L27.498764,24.1651699 L27.981558,24.0583937 L27.981558,24.0583937 L28.2908624,23.9999829 L28.2908624,23.9999829 L28.70124,23.9347499 L28.70124,23.9347499 L28.9952338,23.8967407 L28.9952338,23.8967407 L29.3586902,23.8599602 L29.3586902,23.8599602 L29.6568636,23.8383232 L29.6568636,23.8383232 L29.9411755,23.8249345 L29.9411755,23.8249345 L30.236779,23.8185882 Z" id="Shape"></path>
        </g>
    </g>
</svg>
